modules/hawcons-filled/icons/file-3gp.svg

<?xml version="1.0" encoding="UTF-8" standalone="no"?>
<svg width="32px" height="32px" viewBox="0 0 32 32" version="1.1" xmlns="http://www.w3.org/2000/svg" xmlns:xlink="http://www.w3.org/1999/xlink" xmlns:sketch="http://www.bohemiancoding.com/sketch/ns">
    <!-- Generator: Sketch 3.0.3 (7891) - http://www.bohemiancoding.com/sketch -->
    <title>icon 55 file 3gp</title>
    <desc>Created with Sketch.</desc>
    <defs></defs>
    <g id="Page-1" stroke="none" stroke-width="1" fill="none" fill-rule="evenodd" sketch:type="MSPage">
        <g id="icon-55-file-3gp" sketch:type="MSArtboardGroup" fill="#929292">
            <path d="M8.00684834,10 C6.34621185,10 5,11.3422643 5,12.9987856 L5,20.0012144 C5,21.6573979 6.33599155,23 8.00684834,23 L24.9931517,23 C26.6537881,23 28,21.6577357 28,20.0012144 L28,12.9987856 C28,11.3426021 26.6640085,10 24.9931517,10 L8.00684834,10 L8.00684834,10 Z M8,15 C8,13.8877296 8.89761602,13 10.0048815,13 L10.9951185,13 C12.1061002,13 13,13.8954305 13,15 C13,15.6004281 12.7384276,16.1354233 12.3235057,16.5006603 C12.7388841,16.8671162 13,17.4030124 13,18 C13,19.1122704 12.102384,20 10.9951185,20 L10.0048815,20 C8.8938998,20 8,19.1045695 8,18 L9,18 C9,18.5522847 9.44266033,19 9.99895656,19 L11.0010434,19 C11.5527519,19 12,18.5561352 12,18 C12,17.4477153 11.5573397,17 11.0010434,17 L10,17 L10,16 L11.0010434,16 C11.5527519,16 12,15.5561352 12,15 C12,14.4477153 11.5573397,14 11.0010434,14 L9.99895656,14 C9.44724809,14 9,14.4438648 9,15 L8,15 L8,15 Z M18,17 L18,19 L15.9998075,19 C15.4437166,19 15,18.5523709 15,18.0001925 L15,14.9998075 C15,14.4437166 15.4476291,14 15.9998075,14 L19,14 L19,13 L16.0048815,13 C14.897616,13 14,13.8865548 14,15.0059191 L14,17.9940809 C14,19.1019194 14.8938998,20 16.0048815,20 L19,20 L19,19.25 L19,19.25 L19,17 L19,16 L16,16 L16,17 L18,17 L18,17 Z M20,15 L20,20 L21,20 L21,17 L22.9951185,17 C24.102384,17 25,16.1122704 25,15 C25,13.8954305 24.1061002,13 22.9951185,13 L20,13 L20,15 L20,15 Z M21,14 L21,16 L23.0010434,16 C23.5527519,16 24,15.5561352 24,15 C24,14.4477153 23.5573397,14 23.0010434,14 L21,14 L21,14 Z" id="file-3gp" sketch:type="MSShapeGroup"></path>
        </g>
    </g>
</svg>

<svg width="32" height="32" viewBox="0 0 32 32" xmlns="http://www.w3.org/2000/svg"><path d="M8.007 10A3.003 3.003 0 0 0 5 12.999V20A2.996 2.996 0 0 0 8.007 23h16.986A3.003 3.003 0 0 0 28 20.001V13A2.996 2.996 0 0 0 24.993 10H8.007zM8 15c0-1.112.898-2 2.005-2h.99a2 2 0 0 1 1.329 3.5c.415.367.676.903.676 1.5 0 1.112-.898 2-2.005 2h-.99A2 2 0 0 1 8 18h1c0 .552.443 1 .999 1h1.002A.997.997 0 0 0 12 18c0-.552-.443-1-.999-1H10v-1h1.001A.997.997 0 0 0 12 15c0-.552-.443-1-.999-1H9.999A.997.997 0 0 0 9 15H8zm10 2v2h-2c-.556 0-1-.448-1-1v-3c0-.556.448-1 1-1h3v-1h-2.995A1.998 1.998 0 0 0 14 15.006v2.988c0 1.108.894 2.006 2.005 2.006H19v-4h-3v1h2zm2-2v5h1v-3h1.995a2 2 0 0 0 0-4H20v2zm1-1v2h2.001A.997.997 0 0 0 24 15c0-.552-.443-1-.999-1H21z" fill="#929292" fill-rule="evenodd"/></svg>
